images/logo.svg

<svg width="142" height="33" viewBox="0 0 142 33" fill="none" xmlns="http://www.w3.org/2000/svg">
<path d="M0.876465 6.73727V32.6084H4.59039V13.8746H4.8304L12.4604 32.5705H15.5427L23.1726 13.8872H23.4126V32.6084H27.1266V6.73727H22.3894L14.1531 26.848H13.8499L5.61361 6.73727H0.876465Z" fill="white"/>
<path d="M40.8611 33C45.093 33 48.0868 30.9157 48.9458 27.7576L45.3709 27.1133C44.6887 28.945 43.0465 29.8798 40.899 29.8798C37.6651 29.8798 35.4924 27.7828 35.3913 24.0436H49.1859V22.7046C49.1859 15.6936 44.9919 12.9524 40.5958 12.9524C35.1892 12.9524 31.6268 17.0706 31.6268 23.033C31.6268 29.0587 35.1386 33 40.8611 33ZM35.4039 21.214C35.5555 18.4601 37.5514 16.0726 40.6211 16.0726C43.5518 16.0726 45.4719 18.2454 45.4846 21.214H35.4039Z" fill="white"/>
<path d="M67.9165 17.9422C67.1333 14.9231 64.7711 12.9524 60.5771 12.9524C56.1937 12.9524 53.0861 15.2641 53.0861 18.7001C53.0861 21.454 54.7536 23.2857 58.3917 24.0942L61.6761 24.8142C63.5457 25.2311 64.4174 26.0648 64.4174 27.2775C64.4174 28.7808 62.813 29.9556 60.3371 29.9556C58.0759 29.9556 56.6232 28.9829 56.1684 27.0754L52.5177 27.6312C53.1493 31.0672 56.0042 33 60.3624 33C65.049 33 68.2955 30.5114 68.2955 26.9996C68.2955 24.2584 66.5522 22.5656 62.9899 21.7445L59.9076 21.0371C57.7727 20.5318 56.8506 19.8118 56.8632 18.498C56.8506 17.0074 58.4675 15.9463 60.615 15.9463C62.9646 15.9463 64.051 17.2474 64.4932 18.5486L67.9165 17.9422Z" fill="white"/>
<path d="M81.5058 13.2051H77.5266V8.55633H73.7495V13.2051H70.9072V16.2368H73.7495V27.6944C73.7369 31.2188 76.4276 32.9242 79.4088 32.861C80.6089 32.8484 81.4174 32.621 81.8595 32.4568L81.1774 29.3366C80.9247 29.3871 80.4573 29.5008 79.851 29.5008C78.6256 29.5008 77.5266 29.0966 77.5266 26.9112V16.2368H81.5058V13.2051Z" fill="white"/>
<path d="M93.6487 33C99.1185 33 102.693 28.9955 102.693 22.9951C102.693 16.9569 99.1185 12.9524 93.6487 12.9524C88.1789 12.9524 84.6039 16.9569 84.6039 22.9951C84.6039 28.9955 88.1789 33 93.6487 33ZM93.6613 29.8293C90.0864 29.8293 88.4189 26.7091 88.4189 22.9825C88.4189 19.2686 90.0864 16.1105 93.6613 16.1105C97.211 16.1105 98.8785 19.2686 98.8785 22.9825C98.8785 26.7091 97.211 29.8293 93.6613 29.8293Z" fill="white"/>
<path d="M106.785 8.8932H107.829V5.52456H109.716C109.791 5.52456 109.863 5.52456 109.935 5.52035L111.754 8.8932H112.966L111.017 5.33087C112.116 4.95611 112.63 4.05921 112.63 2.91387C112.63 1.38956 111.72 0.269491 109.699 0.269491H106.785V8.8932ZM107.829 4.58135V1.19587H109.665C111.063 1.19587 111.602 1.87801 111.602 2.91387C111.602 3.94973 111.063 4.58135 109.682 4.58135H107.829Z" fill="white"/>
<path d="M118.311 6.24882C118.311 7.46153 117.385 8.01735 116.644 8.01735C115.818 8.01735 115.229 7.411 115.229 6.46778V2.42542H114.235V6.53515C114.235 8.18579 115.111 8.97742 116.323 8.97742C117.3 8.97742 117.94 8.45528 118.244 7.79839H118.311V8.8932H119.305V2.42542H118.311V6.24882Z" fill="white"/>
<path d="M125.706 3.87393C125.395 2.95598 124.696 2.3412 123.416 2.3412C122.051 2.3412 121.041 3.11599 121.041 4.21079C121.041 5.10348 121.571 5.70142 122.759 5.97933L123.837 6.23198C124.489 6.38357 124.797 6.69516 124.797 7.14151C124.797 7.69733 124.207 8.1521 123.281 8.1521C122.468 8.1521 121.959 7.8026 121.782 7.10782L120.838 7.34363C121.07 8.44264 121.975 9.02795 123.298 9.02795C124.801 9.02795 125.824 8.20684 125.824 7.09098C125.824 6.18987 125.26 5.62141 124.106 5.33929L123.146 5.10348C122.38 4.914 122.034 4.65714 122.034 4.16027C122.034 3.60444 122.624 3.2002 123.416 3.2002C124.283 3.2002 124.641 3.68023 124.813 4.12658L125.706 3.87393Z" fill="white"/>
<path d="M131.901 3.87393C131.59 2.95598 130.891 2.3412 129.611 2.3412C128.246 2.3412 127.236 3.11599 127.236 4.21079C127.236 5.10348 127.766 5.70142 128.954 5.97933L130.032 6.23198C130.684 6.38357 130.992 6.69516 130.992 7.14151C130.992 7.69733 130.402 8.1521 129.476 8.1521C128.663 8.1521 128.154 7.8026 127.977 7.10782L127.034 7.34363C127.265 8.44264 128.171 9.02795 129.493 9.02795C130.996 9.02795 132.019 8.20684 132.019 7.09098C132.019 6.18987 131.455 5.62141 130.301 5.33929L129.341 5.10348C128.575 4.914 128.229 4.65714 128.229 4.16027C128.229 3.60444 128.819 3.2002 129.611 3.2002C130.478 3.2002 130.836 3.68023 131.009 4.12658L131.901 3.87393Z" fill="white"/>
<path d="M133.515 8.8932H134.509V2.42542H133.515V8.8932ZM134.02 1.34745C134.408 1.34745 134.728 1.04428 134.728 0.673727C134.728 0.303177 134.408 0 134.02 0C133.633 0 133.313 0.303177 133.313 0.673727C133.313 1.04428 133.633 1.34745 134.02 1.34745Z" fill="white"/>
<path d="M138.232 9.04479C139.361 9.04479 139.95 8.43843 140.152 8.01735H140.203V8.8932H141.197V4.63187C141.197 2.57701 139.63 2.3412 138.805 2.3412C137.828 2.3412 136.716 2.67807 136.211 3.85709L137.154 4.19395C137.373 3.72234 137.891 3.21705 138.839 3.21705C139.752 3.21705 140.203 3.70129 140.203 4.53082V4.5645C140.203 5.04453 139.714 5.00242 138.535 5.15401C137.335 5.30981 136.026 5.57509 136.026 7.05729C136.026 8.32053 137.003 9.04479 138.232 9.04479ZM138.384 8.1521C137.592 8.1521 137.02 7.79839 137.02 7.10782C137.02 6.34988 137.71 6.11407 138.485 6.01302C138.906 5.96249 140.034 5.84458 140.203 5.64247V6.552C140.203 7.36047 139.563 8.1521 138.384 8.1521Z" fill="white"/>
</svg>

<svg width="142" height="33" fill="none" xmlns="http://www.w3.org/2000/svg"><path d="M.876 6.737v25.871H4.59V13.875h.24l7.63 18.696h3.083l7.63-18.684h.24v18.721h3.714V6.738h-4.738l-8.236 20.11h-.303L5.614 6.738H.876ZM40.861 33c4.232 0 7.226-2.084 8.085-5.242l-3.575-.645c-.682 1.832-2.325 2.767-4.472 2.767-3.234 0-5.407-2.097-5.508-5.836h13.795v-1.34c0-7.01-4.194-9.752-8.59-9.752-5.407 0-8.97 4.119-8.97 10.081 0 6.026 3.513 9.967 9.235 9.967Zm-5.457-11.786c.151-2.754 2.147-5.141 5.217-5.141 2.93 0 4.85 2.172 4.864 5.141H35.404ZM67.916 17.942c-.783-3.019-3.145-4.99-7.339-4.99-4.383 0-7.49 2.312-7.49 5.748 0 2.754 1.667 4.586 5.305 5.394l3.284.72c1.87.417 2.741 1.25 2.741 2.463 0 1.504-1.604 2.679-4.08 2.679-2.261 0-3.714-.973-4.169-2.88l-3.65.555C53.149 31.067 56.004 33 60.362 33c4.687 0 7.934-2.489 7.934-6 0-2.742-1.744-4.434-5.306-5.256l-3.082-.707c-2.135-.505-3.057-1.225-3.045-2.539-.012-1.49 1.605-2.552 3.752-2.552 2.35 0 3.436 1.301 3.878 2.603l3.424-.607ZM81.506 13.205h-3.98V8.556H73.75v4.65h-2.843v3.03h2.843v11.458c-.013 3.525 2.678 5.23 5.659 5.167 1.2-.013 2.008-.24 2.45-.404l-.682-3.12c-.252.05-.72.164-1.326.164-1.225 0-2.324-.404-2.324-2.59V16.237h3.979v-3.032ZM93.649 33c5.47 0 9.044-4.005 9.044-10.005 0-6.038-3.575-10.043-9.044-10.043-5.47 0-9.045 4.005-9.045 10.043 0 6 3.575 10.005 9.045 10.005Zm.012-3.17c-3.575 0-5.242-3.12-5.242-6.847 0-3.714 1.667-6.873 5.242-6.873 3.55 0 5.218 3.159 5.218 6.873 0 3.726-1.668 6.846-5.218 6.846ZM106.785 8.893h1.044V5.525h1.887c.075 0 .147 0 .219-.005l1.819 3.373h1.212l-1.949-3.562c1.099-.375 1.613-1.272 1.613-2.417 0-1.524-.91-2.645-2.931-2.645h-2.914v8.624Zm1.044-4.312V1.196h1.836c1.398 0 1.937.682 1.937 1.718s-.539 1.667-1.92 1.667h-1.853ZM118.311 6.249c0 1.213-.926 1.768-1.667 1.768-.826 0-1.415-.606-1.415-1.55V2.426h-.994v4.11c0 1.65.876 2.442 2.088 2.442.977 0 1.617-.522 1.921-1.179h.067v1.095h.994V2.425h-.994V6.25ZM125.706 3.874c-.311-.918-1.01-1.533-2.29-1.533-1.365 0-2.375.775-2.375 1.87 0 .892.53 1.49 1.718 1.768l1.078.253c.652.152.96.463.96.91 0 .555-.59 1.01-1.516 1.01-.813 0-1.322-.35-1.499-1.044l-.944.236c.232 1.099 1.137 1.684 2.46 1.684 1.503 0 2.526-.821 2.526-1.937 0-.901-.564-1.47-1.718-1.752l-.96-.236c-.766-.189-1.112-.446-1.112-.943 0-.556.59-.96 1.382-.96.867 0 1.225.48 1.397.927l.893-.253ZM131.901 3.874c-.311-.918-1.01-1.533-2.29-1.533-1.365 0-2.375.775-2.375 1.87 0 .892.53 1.49 1.718 1.768l1.078.253c.652.152.96.463.96.91 0 .555-.59 1.01-1.516 1.01-.813 0-1.322-.35-1.499-1.044l-.943.236c.231 1.099 1.137 1.684 2.459 1.684 1.503 0 2.526-.821 2.526-1.937 0-.901-.564-1.47-1.718-1.752l-.96-.236c-.766-.189-1.112-.446-1.112-.943 0-.556.59-.96 1.382-.96.867 0 1.225.48 1.398.927l.892-.253ZM133.515 8.893h.994V2.425h-.994v6.468Zm.505-7.546c.388 0 .708-.303.708-.673 0-.37-.32-.674-.708-.674-.387 0-.707.303-.707.674 0 .37.32.673.707.673ZM138.232 9.045c1.129 0 1.718-.607 1.92-1.028h.051v.876h.994V4.632c0-2.055-1.567-2.29-2.392-2.29-.977 0-2.089.336-2.594 1.515l.943.337c.219-.472.737-.977 1.685-.977.913 0 1.364.484 1.364 1.314v.034c0 .48-.489.437-1.668.589-1.2.156-2.509.421-2.509 1.903 0 1.264.977 1.988 2.206 1.988Zm.152-.893c-.792 0-1.364-.354-1.364-1.044 0-.758.69-.994 1.465-1.095.421-.05 1.549-.168 1.718-.37v.909c0 .808-.64 1.6-1.819 1.6Z" fill="#fff"/></svg>
